packages/ui-icons/svg/Solid/table-delete-column.svg

<svg viewBox="0 0 1920 1920" version="1.1" xmlns="http://www.w3.org/2000/svg">
    <path d="M1694.232 1694.064h-338.88v-194.04h-225.96v194.04h-338.76v-194.04h-225.96v194.04h-338.76V225.984h338.76v199.8h225.96v-199.8h338.76v199.8h225.96v-199.8h338.88v1468.08zm-.12-1694.04h-1468.2C101.352.024.072 101.304.072 225.984v1468.08c0 124.68 101.28 225.96 225.84 225.96h1468.2c124.56 0 225.96-101.28 225.96-225.96V225.984c0-124.68-101.4-225.96-225.96-225.96zM1201.344 484.92l-241.32 241.32-241.2-241.32-233.88 233.76L726.264 960l-241.32 241.32 233.88 233.76 241.2-241.32 241.32 241.32 233.64-233.76-241.2-241.32 241.2-241.32-233.64-233.76z" stroke="none" stroke-width="1" fill-rule="evenodd"/>
</svg>

<svg viewBox="0 0 1920 1920" version="1.1" xmlns="http://www.w3.org/2000/svg">
    <path d="M1694.232,1694.064 L1355.352,1694.064 L1355.352,1500.024 L1129.392,1500.024 L1129.392,1694.064 L790.632,1694.064 L790.632,1500.024 L564.672,1500.024 L564.672,1694.064 L225.912,1694.064 L225.912,225.984 L564.672,225.984 L564.672,425.784 L790.632,425.784 L790.632,225.984 L1129.392,225.984 L1129.392,425.784 L1355.352,425.784 L1355.352,225.984 L1694.232,225.984 L1694.232,1694.064 Z M1694.112,0.024 L225.912,0.024 C101.352,0.024 0.072,101.304 0.072,225.984 L0.072,1694.064 C0.072,1818.744 101.352,1920.024 225.912,1920.024 L1694.112,1920.024 C1818.672,1920.024 1920.072,1818.744 1920.072,1694.064 L1920.072,225.984 C1920.072,101.304 1818.672,0.024 1694.112,0.024 L1694.112,0.024 Z M1201.344,484.92 L960.024,726.24 L718.824,484.92 L484.944,718.68 L726.264,960 L484.944,1201.32 L718.824,1435.08 L960.024,1193.76 L1201.344,1435.08 L1434.984,1201.32 L1193.784,960 L1434.984,718.68 L1201.344,484.92 Z" stroke="none" stroke-width="1" fill-rule="evenodd"/>
</svg>
